src/images/icons/financial.svg

<svg width="61" height="62" viewBox="0 0 61 62" fill="none" xmlns="http://www.w3.org/2000/svg">
<g clip-path="url(#clip0_1_2703)">
<path d="M13.6772 28.6004C13.6772 29.0473 13 29.0473 13 28.6004C13 19.096 20.6926 11.3877 30.1776 11.3877C39.6667 11.3877 47.3552 19.096 47.3552 28.6004C47.3552 29.0473 46.6821 29.0473 46.6821 28.6004C46.6821 22.1761 36.1468 22.172 36.1468 28.6004C36.1468 29.0473 35.4534 29.0473 35.4534 28.6004C35.4534 22.1923 24.9019 22.1923 24.9019 28.6004C24.9019 29.0473 24.2084 29.0473 24.2084 28.6004C24.2084 22.2045 13.6772 22.1598 13.6772 28.6004ZM24.2693 26.1054C24.4517 22.4077 25.0316 19.092 25.8751 16.5604C26.5483 14.549 27.3998 13.0212 28.365 12.1638C21.1225 12.9562 15.2587 18.4581 13.9489 25.5934C16.4428 21.9892 22.2011 22.2777 24.2693 26.1054ZM35.4006 25.9388C35.2141 22.3833 34.6504 19.2017 33.8394 16.7758C31.747 10.4978 28.6083 10.4978 26.5158 16.7758C25.7048 19.2017 25.1452 22.3833 24.9546 25.9388C27.2052 22.107 33.15 22.107 35.4006 25.9388ZM46.4063 25.5934C45.1006 18.4581 39.2368 12.9562 31.9903 12.1638C32.9594 13.0212 33.807 14.549 34.4801 16.5604C35.3236 19.092 35.9035 22.4077 36.086 26.1054C38.1663 22.2574 43.9408 22.0298 46.4063 25.5934Z" fill="#FF6B09"/>
<path d="M27.9234 36.4764V32.9811C27.2948 33.3997 26.8001 34.0459 26.8001 34.8344C26.8001 35.6025 27.3029 36.1106 27.9234 36.4764ZM28.6006 37.5615C27.3962 37.0088 26.127 36.3626 26.127 34.8344C26.127 33.2574 27.3232 32.469 28.6006 31.8796V37.5615Z" fill="#FF6B09"/>
<path d="M32.4319 41.7496V45.2848C33.0686 44.8622 33.5674 44.2121 33.5674 43.4238C33.5674 42.6477 33.0564 42.1235 32.4319 41.7496ZM31.7588 40.6606C32.9672 41.2214 34.2446 41.8878 34.2446 43.4238C34.2446 45.0044 33.0402 45.7928 31.7588 46.3779V40.6606Z" fill="#FF6B09"/>
<path d="M32.4318 29.0026C35.2055 29.6446 38.0563 31.7251 38.0563 34.8337C38.0563 37.4953 33.5673 37.3978 33.5673 34.8337C33.5673 34.0413 33.0685 33.3912 32.4318 32.9726V37.9464C34.9987 38.7875 38.0644 40.2951 38.0644 43.424C38.0644 46.5367 35.2136 48.6132 32.4318 49.2511C32.4197 52.2134 27.9306 52.2094 27.9225 49.2471C26.341 48.8813 24.9663 48.1418 23.9728 47.1625C22.9306 46.1303 22.3142 44.8341 22.3142 43.424C22.3142 40.8031 26.7992 40.8031 26.7992 43.424C26.7992 44.2083 27.2939 44.8544 27.9225 45.2729V40.3032C25.3759 39.4783 22.2939 37.9261 22.2939 34.8256C22.2939 31.7129 25.1447 29.6365 27.9225 28.9985C27.9347 26.0362 32.4237 26.0403 32.4318 29.0026ZM28.5997 29.0107V29.5512C25.9598 30.0753 22.9671 31.7698 22.9671 34.8256C22.9671 37.7635 26.2518 39.0801 28.5997 39.8075V46.3742C27.3304 45.7931 26.1261 45.0088 26.1261 43.424C26.1261 41.693 22.9874 41.693 22.9874 43.424C22.9874 44.6472 23.5308 45.7768 24.4472 46.6789C25.6111 47.833 27.0222 48.3815 28.5997 48.6944V49.2389C28.5997 51.3235 31.7587 51.3235 31.7587 49.2389V48.6985C34.4067 48.1702 37.3872 46.4757 37.3872 43.424C37.3872 40.4577 34.1106 39.1817 31.7587 38.4381V32.3997V31.8755C33.032 32.4566 34.2445 33.2408 34.2445 34.8337C34.2445 36.5201 37.3791 36.5892 37.3791 34.8337C37.3791 31.782 34.4026 30.0835 31.7587 29.5552V29.0107C31.7587 26.9261 28.5997 26.9261 28.5997 29.0107Z" fill="#FF6B09"/>
</g>
<path d="M60 9.23529V1H1V61H60V52.7647" stroke="#FF6B09" stroke-width="2"/>
<defs>
<clipPath id="clip0_1_2703">
<rect width="35" height="40.0816" fill="white" transform="translate(13 11.3877)"/>
</clipPath>
</defs>
</svg>

<svg width="61" height="62" fill="none" xmlns="http://www.w3.org/2000/svg"><g clip-path="url(#a)" fill="#FF6B09"><path d="M13.677 28.6c0 .447-.677.447-.677 0 0-9.504 7.693-17.212 17.178-17.212 9.489 0 17.177 7.708 17.177 17.212 0 .447-.673.447-.673 0 0-6.424-10.535-6.428-10.535 0 0 .447-.694.447-.694 0 0-6.408-10.551-6.408-10.551 0 0 .447-.694.447-.694 0 0-6.396-10.53-6.44-10.53 0zm10.592-2.495c.183-3.697.763-7.013 1.606-9.545.673-2.011 1.525-3.539 2.49-4.396-7.242.792-13.106 6.294-14.416 13.43 2.494-3.605 8.252-3.316 10.32.511zm11.132-.166c-.187-3.556-.75-6.737-1.562-9.163-2.092-6.278-5.23-6.278-7.323 0-.811 2.426-1.37 5.607-1.561 9.163 2.25-3.832 8.195-3.832 10.446 0zm11.005-.346c-1.305-7.135-7.17-12.637-14.416-13.43.97.858 1.817 2.386 2.49 4.397.844 2.532 1.424 5.848 1.606 9.545 2.08-3.848 7.855-4.075 10.32-.512zM27.923 36.476v-3.495c-.628.419-1.123 1.065-1.123 1.853 0 .768.503 1.277 1.123 1.642zm.678 1.086c-1.205-.553-2.474-1.2-2.474-2.728 0-1.577 1.196-2.365 2.474-2.954v5.682zM32.432 41.75v3.535c.637-.423 1.135-1.073 1.135-1.861 0-.776-.51-1.3-1.135-1.674zm-.673-1.09c1.208.561 2.486 1.228 2.486 2.764 0 1.58-1.205 2.369-2.486 2.954V40.66z"/><path d="M32.432 29.003c2.773.642 5.624 2.722 5.624 5.83 0 2.662-4.489 2.565-4.489 0 0-.792-.498-1.442-1.135-1.86v4.973c2.567.842 5.632 2.35 5.632 5.478 0 3.113-2.85 5.19-5.632 5.827-.012 2.962-4.501 2.958-4.51-.004-1.581-.366-2.956-1.105-3.95-2.084-1.041-1.033-1.658-2.329-1.658-3.739 0-2.62 4.485-2.62 4.485 0 0 .784.495 1.43 1.123 1.849v-4.97c-2.546-.825-5.628-2.377-5.628-5.477 0-3.113 2.85-5.19 5.628-5.828.013-2.962 4.502-2.958 4.51.005zm-3.832.008v.54c-2.64.524-5.633 2.219-5.633 5.275 0 2.938 3.285 4.254 5.633 4.981v6.567c-1.27-.58-2.474-1.365-2.474-2.95 0-1.731-3.139-1.731-3.139 0 0 1.223.544 2.353 1.46 3.255 1.164 1.154 2.575 1.703 4.153 2.015v.545c0 2.085 3.159 2.085 3.159 0v-.54c2.648-.529 5.628-2.223 5.628-5.275 0-2.966-3.276-4.242-5.628-4.986v-6.562c1.273.58 2.486 1.365 2.486 2.958 0 1.686 3.134 1.755 3.134 0 0-3.052-2.976-4.75-5.62-5.279v-.544c0-2.085-3.16-2.085-3.16 0z"/></g><path d="M60 9.235V1H1v60h59v-8.235" stroke="#FF6B09" stroke-width="2"/><defs><clipPath id="a"><path fill="#fff" transform="translate(13 11.388)" d="M0 0h35v40.082H0z"/></clipPath></defs></svg>
